resources/svg/pie-chart-line.svg

<svg fill="currentColor" viewBox="0 0 24 24" xmlns="http://www.w3.org/2000/svg"><path d="M9 2.4578V4.58152C6.06817 5.76829 4 8.64262 4 12C4 16.4183 7.58172 20 12 20C15.3574 20 18.2317 17.9318 19.4185 15H21.5422C20.2679 19.0571 16.4776 22 12 22C6.47715 22 2 17.5228 2 12C2 7.52236 4.94289 3.73207 9 2.4578ZM12 2C17.5228 2 22 6.47715 22 12C22 12.3375 21.9833 12.6711 21.9506 13H11V2.04938C11.3289 2.01672 11.6625 2 12 2ZM13 4.06189V11H19.9381C19.4869 7.38128 16.6187 4.51314 13 4.06189Z"/></svg>

<svg xmlns="http://www.w3.org/2000/svg" viewBox="0 0 24 24" fill="currentColor">
    <g>
        <path fill="none" d="M0 0h24v24H0z"/>
        <path d="M12 22C6.477 22 2 17.523 2 12c0-4.478 2.943-8.268 7-9.542v2.124A8.003 8.003 0 0 0 12 20a8.003 8.003 0 0 0 7.418-5h2.124c-1.274 4.057-5.064 7-9.542 7zm9.95-9H11V2.05c.329-.033.663-.05 1-.05 5.523 0 10 4.477 10 10 0 .337-.017.671-.05 1zM13 4.062V11h6.938A8.004 8.004 0 0 0 13 4.062z"/>
    </g>
</svg>
